X:1
T:A dialogue between Charon and Orpheus
T:Henry Purcell
T:A dialogue between Charon and Orpheus
C:Henry Purcell
%%score [ 1 2 ] { ( 3 5 ) | ( 4 6 ) }
L:1/8
Q:1/4=65
M:4/4
K:F
V:1 bass nm="Orpheus" snm="Orph."
V:2 bass nm="Charon" snm="Cha"
V:3 treble nm="Harpsichord" snm="Hpschd."
V:5 treble 
V:4 bass 
V:6 bass 
V:1
 z2 A,2 C2 C/E,F,/ | F,>E, F,2 z A, D<G, | G,>D _E3 D C2- | C B,/A,/ B,>C A,2 F,2 | %4
w: Haste, haste gen- * tle|Cha- ron haste, I pri- thee|come, And waft me to|* the * blest E- ly- sium,|
 z A, G,3 B,A,>G, | ^F,D,E,F, G,3 A, |"^6" B,4 z =B, B,>E | ^CA, D2- DC TC>D | %8
w: Through whose cool * *|shade with wan- d'ring souls I'll|flee Till I have|found the fair * * * Eu-|
"^a tempo""^rit." D/D/D z2 z2 D,D,/F,/ | B,,3 G, E,>D, C,2 | z C C4 z C | C4 z A, D2- | %12
w: ry- di- ce. Sure he's a-|sleep and hears me not,|So ho! so|ho! A- wake|
 DD,F,F, B,4 | z G, C<=B, C>G, _A,2- | A,=A, B, _A,/G,/ E,C, F,>G, | _A, G,2 F, F,2 z2 | z8 | z8 | %18
w: * dull man, a- wake!|thou dost not know The pains|* * * that * part- ed lov- ers|un- * der- go.|||
 z8 | z8 | z8 | z8 | z8 | z8 | z8 | z8 | z8 | z4 z2 z C | C<G, A,>B, A,2 z D | _E3 A, B, z z2 | %30
w: |||||||||I|pri- thee come and see, 'Tis|Or- pheus calls.|
 z4 z2 z C | CB,B, A,2 G,F,D, | D2 ^C>D C2 z E | E<=B, ^G,>B, D3 C/B,/ | =B,3 A, A,4 | z8 | z8 | %37
w: For|pi- ty's sake * let me no|long- * er stay, Each|min- ute seems to be a *|last- ing day.|||
 z8 | z8 | z2 DD z A, B,>C | =B,3 B, C/_B,/A,-A,/B,/ A,/G,/ | D>A, B,/A,/ G,/F,/ D,3 ^C, | %42
w: ||Fear not, the winds shall|cease, I'll charm * * * * their *|rage to gen- * tle * calms of|
 D,2 z2 z4 | z8 | z8 | z4 z2 z A, ||[M:6/4][Q:1/4=90]"^tempo 30" A,2 z2 z2 G,2 z2 z C | %47
w: peace.|||Be|still, still, be|
 C3 D =B,2 C3 C _B,2 | A,G,A,B, CA, D4 z B, | D,2 G,>A, G,>F, E,3 F,E,F,/G,/ | %50
w: still, ye proud waves and your|fu- * * ry give * o'er, Re-|tire all * * ye winds, and * * op-|
 ^F,2 D,3 F, G,2 D,3 D, | G,,4 G,D, _E,2 =E,3 E, | F,2 F,2 F,/E,F,/ D,2 D,2 F,2 | %53
w: pose them, op- pose them no|more; In the dark, hol- low|ca- verns your * * re- vels go|
 B,4 z C =B,3 C D2 | ^C2 A,3 C D3 D G,2 | G,2 G,2 B,A, F,3 E, D,2 | D,4 D,2 G,3 G, F,2 | %57
w: keep, Then void of dis-|tur- bance, then void of dis-|tur- bance the * bil- lows may|sleep; And when they a-|
 E,3 E, F,2 F,2 E,>F, D,2 | C,4 C2 C2 DCB,A, | G,2 G,2 A,2 B,3 C A,2 | G,2 E,3 F, F,6 |] %61
w: wake they'll be calm * and ap-|pear As gen- * * * *|* tle as if the great|Plu- to were here.|
V:2
 z8 | z8 | z8 | z8 | z8 | z8 | z8 | z8 | z8 | z8 | z8 | z8 | z8 | z8 | z8 | z4 z2 z C | %16
w: |||||||||||||||What|
 A,>G, F,<C, F,2 z2 | z C,D,_E, D,>F, B,2- | B,G,_A,A, A,/G,A,/ B,/A,G,/ | G,2 z _E B,G, C2- | %20
w: voice is this I hear?|no mor- tal dare In- vade|* these gloom- y re- * gions of * des-|pair, Where sul- len clouds|
 CB, A,/B,/A,/G,/ F,>E, D,D, | G,3 E, A,/G,/F,/E,/ D,C, | G,=B,, C,>D, D,3 C, | C,4 z G,CC | %24
w: * have chas'd * * * * a- way the|light, And drawn * * * * dark|cur- tains of e- ter- nal|night. And wing- ed|
 C/C/C/A,/ B,>C D4- | D>A, B,<E, ^F,>A, C B,/A,/ | A,3 G, G,4 | G,2 z G, E,C, z2 | z8 | %29
w: Mer- cu- ry per- haps may bring|* Some mes- sage to the great in- *|fer- nal King.|Speak, who art thou?||
 z4 z z/ D,/ G,2- | G,D, E,>F, E,2 z2 | z8 | z8 | z8 | z8 | z A,,=B,,^C, D,>E, F,D, | %36
w: Then Or-|* pheus wait on me.|||||The ri- sing tides by an- gry|
 G,>A, B,3 G, A,>B, | C>E, F,>G, G,3 F, | F,4 z D,/_E,/ E,>D, | D,2 z2 z4 | z8 | z8 | %42
w: winds are met, And swell so|high my boat will o- ver-|set. I * dare not|stir.|||
 z3/2 D,/ G,<D, _E,C, D,>=E, | F,3 G, A,4 | z =B, C>F, E,>A, _B,/A,/ G,/F,/ | %45
w: Then come a- board and whilst we|sail a- long,|Di- vert the storm by some * de- *|
 F,G, TF,>E, !fermata!F,3 F, ||[M:6/4] F,2 z2 z2 E,2 z2 z E, | D,3 D, G,2 C,3 D, E,2 | %48
w: light- * * ful song. Be|still, still, be|still, ye proud waves and your|
 F,E,F,G, A,F, B,4 z2 | z2 z2 z D G,2 C>D C>B, | A,3 B,A,B,/C/ B,2 G,3 ^F, | G,4 z2 z2 z2 C,G,, | %52
w: fu- * * ry give * o'er,|Re- tire all * * ye|winds, and * * op- pose them no|more; In the|
 _A,,2 =A,,3 A,, B,,2 B,,2 B,,/A,,B,,/ | G,,2 G,,2 D,2 G,4 E,2 | A,3 G, F,2 B,2 B,F, E,2 | %55
w: dark, hol- low ca- verns your * *|re- vels go keep, Then|void of dis- tur- bance, of dis-|
 ^C,2 A,,2 G,,2 A,,3 B,, A,,2 | D,4 A,2 B,3 A, G,2 | C3 B, A,2 A,2 G,>A, F,2 | %58
w: tur- bance the bil- lows may|sleep; And when they a-|wake they'll be calm * and ap-|
 E,4 A,2 A,2 B,A,G,F, | E,2 E,2 F,2 G,3 C, F,2 | B,,2 C,3 C, F,,6 |] %61
w: pear As gen- * * * *|* tle as if the great|Plu- to were here.|
V:3
 [FAc]8 | [Gc]2 [FAc]2 z2 [DGd]2- | [DGd]2 G4 F2 | [CG]4 [CF]4 | A2 G4 F>E | ^F2 [FA]2 [GB]3 [Ac] | %6
 [Bd]4 d2 e2 | [A^c]2 d2 d2 c2 | [FAd]2 z2 [Bdf]4- | [Bdf]2 [Bdg]2 [Gce]4- | [ce]3 f ge a2- | %11
 [ca]2 [Af][Fc] [Fc][CA] [Dd]2- | [Dd]2 [Fc]2 [GB]4 | d2 c=B c2 _A2- | A=A B_A/G/ G2 cA | %15
 [F_A] [EG]2 F F2 [F,A,C]2- | [F,A,C]6 x2 | F8 | [F,B,F]8 | [G,B,_E]6 [G,C]2- | C2 C2 D3 B, | %21
 G,2 C4 B,2 | D,2 G,>F, D,4 | [C,E,]4 [E,G,C]4 | C2 B,A, B,3 A, | x8 | A,4 G,4 | G,4 z2 [EGc]2 | %28
 [EGc]4 [FA]4 | [FA_e]4 [FBd] z [D,G,D]2- | [D,G,D]4 [E,G,C]4 | c B2 A2 G FA | d2 ^c>d c2 z e | %33
 d4- dc/=B/ cA | [EA]2 [=B,^G]2 [CA]4 | z4 z ^C,D,F, | G,F, E,B,/A,/ G,2 F,E, | F,2 C,F, F,2 E,2 | %38
 A,2 B,4 G,A, | B,2 G,A, B,A, B,>C | [E,=B,]2 [B,D]2 [CG]4 | A2 G2 F3 E | F2 D2 _E3 =E | F2 G2 C4 | %44
 [G,C]2 F,2 [E,G,]2 [F,A,]2 | G,4 !fermata!F,4 ||[M:6/4] [A,C]4 z2 [G,C]4 z2 | C4 =B,2 C4 _B,2 | %48
 [F,A,]4 [A,C]2 [B,D]4 z2 | [D,G,]6 [E,G,]6 | [D,^F,]6 [B,,G,]4 [A,,F,]2 | G,4 z2 G,6 | %52
 [F,C]6 [F,D]4 [F,C]2 | [D,B,]4 [^F,A,]2 [G,=B,]4 [E,E]2 | [^CE]4 [CF]2 D4 [G,E]2 | E4 G2 F3 E D2 | %56
 D4 A2 B3 A G2 | c3 B A2 A2 G2 F2 | E2 G2 c2 c2 dc BA | [EG]4 [CFA]2 [CGB]4 [CFA]2 | %60
 [B,DG]2 [G,CE]4 [A,CF]6 |] %61
V:4
 F,,8- | F,,6 B,,2 | =B,,3 G,, _A,,3 G,,/F,,/ | E,,4 F,,4 | F,3 E,/D,/ ^C,4 | D,2 C,2 B,,2 A,,2 | %6
w: ||* * 7 * *||||
 G,,8 | A,,2 B,,2 A,,4 | D,3 C, B,,4- | B,,2 G,,2 C,4- | C,3 D, E,C, F,2- | %11
w: |||||
 F,2 F,,G,, A,,F,, B,,2- | B,,2 A,,2 G,,3 D, | G,3 F, E,3 _E, | D,2 _D,2 C,2 _A,,F,, | C,4 F,,4- | %16
w: |||||
 F,,4- F,, z z2 | x8 | x8 | x8 | x8 | x8 | x8 | x8 | x8 | x8 | x8 | x8 | x8 | x8 | x8 | x8 | %32
w: ||||||||||||||||
"^6" x8 | x8 | x8 | A,,3 G,, F,,E,, D,,D,/C,/ | B,,A,, G,,G,/F,/ E,>D, C,B,, | A,,2 G,,F,, C,4 | %38
w: ||||||
 F,,8 | B,,3 C, D,4 | G,,2 G,F, E,2 _E,2 | x8 | x8 | x8 | x8 | x8 ||[M:6/4] F,6 E,6 | %47
w: 3|5 * *||||||||
 D,4 G,,2 C,6 | F,,4 F,2 B,,6 | =B,,6 C,6 | D,6 G,,2 D,2 D,,2 | G,,6 C,4- C,G,, | %52
w: |||||
 _A,,2 =A,,4 B,,4 A,,2 | G,,4 D,2 G,4 ^G,2 | A,4 F,2 B,2 B,,4 | A,,4 G,,2 A,,6 | D,4 D,2 G,4 F,2 | %57
w: |||||
"^#6" E,4 F,2 D,6 | C,4 A,,2 B,,6- | B,,4 A,,2 G,,2 E,,2 F,,2 | B,,2 C,4 F,,6 |] %61
w: * * 7||2 * * * *||
V:5
 x8 | x8 | D2 _E3 D C2 | x8 | F4 E4 | D2 D2 D4 | G4 [G=B]4 | E2 [DF]2 [EA]4 | x8 | x8 | G2 z2 c4- | %11
 x8 | x8 | G3 G G2 C2 | F4 E2 F2 | x8 | x8 | [F,-C]4 [F,B,]3 [F,A,] | x8 | x8 | %20
 G,2 A,>G, F,>E, D,2 | C,6 F,/E,/D,/C,/ | =B,,2 C,4 B,,2 | x8 | A,2 F,_E, D,2 E,F, | %25
 G,2 [E,B,]2 [^F,A,]2 [D,C]2 | D,2 ^F,2 G,4- | x8 | x8 | x8 | x8 | E4 FEDA | A3 G A2 z =B | %33
 =B4 ^G2 AF | x8 | x8 | x8 | x8 | [C,F,]4 [C,F,]4 | [D,F,]2 G,2 F,2 D,2 | x8 | A,2 B,2 A,4 | %42
 D2 G,2 G,4 | C2 B,2 A,4 | x8 | F,3 E, F,4 ||[M:6/4] x12 | F,4 D,2 E,3 F, G,2 | x12 | x12 | x12 | %51
 B,,4 z2 _E,2 =E,4 | x12 | x12 | x12 | A,4 B,2 A,6 | F,4 F2 D4 D2 | C6 C4 =B,2 | C4 C2 D6 | x12 | %60
 x12 |] %61
V:6
 x8 | x8 | x8 | x8 | x8 | x8 | x8 | x8 | x8 | x8 | x8 | x8 | x8 | x8 | x8 | x8 | x8 | %17
w: |||||||||||||||||
 A,,4 B,,3 C, | D,4 D,4 | _E,8 | E,2 F,>E, D,/E,/D,/C,/ B,,G,, | %21
w: ||||
 E,,E,, A,,2 F,,F,, B,,/C,/B,,/A,,/ | G,,>F,, E,,F,, G,,4 | C,8 | F,>_E, D,C, B,,B,,C,D, | %25
w: ||||
 _E,2 C,2 D,4- | D,4 G,,4- | G,,4 C,4- | C,4 F,,4- | F,,4 B,,4 | =B,,4 C,4- | C,2 ^C,2 D,3 =C, | %32
w: |||||||
 B,,4 A,,3 G,, | F,,2 E,,4 D,,2 | E,,4 A,,4- | x8 | x8 | x8 | x8 | x8 | x8 | ^F,,2 G,,2 A,,4 | %42
w: 7 * *||||||||||
 D,2 =B,,2 C,3 _B,, | A,,2 G,,2 F,,3 F, | E,2 D,2 C,2 B,,2 | C,4 !fermata!F,,4 ||[M:6/4] x12 | %47
w: |||||
 x12 | x12 | x12 | x12 | x12 | x12 | x12 | x12 | x12 | x12 | x12 | x12 | x12 | x12 |] %61
w: ||||||||||||||

